X: 2051
T: La Bell Cavalier
%R: _
B: Henry Playford "Apollo's Banquet", London 1687 (5th Edition)
F: https://archive.org/details/apollosbanquetco01rugg
Z: 2017 John Chambers <jc:trillian.mit.edu>
M: C|
L: 1/8
K: F
% - - - - - - - - - -
|:\
f4 c2fe | d2(gf) e2(dc) |\
d4 c2(BA) | B2(cB) A2(GF) |\
f4 c2(fe) | d2(gf) e2(dc) |\
d2c2 c3B | c6 !segno!A2 |
(Bc)(de) f3f | (ga)(ba) g3g |\
(de)f2 f3e | f6 ::[M:3/4] c2 |\
A2F2c2 | f3ge2 | f2c2B2 | A3Ad2 |\
B3AB2 | G2c2B2 | A2F2F2 | F4 :: c2 |
f3fg2 | a2f2a2 | g2e2g2 | e3dc2 |\
a2f2a2 | g2e3c | f4 !segno!A2 |\
B3Bc2 | d4c2 | d3ef2 | e3dc2 |\
f3ga2 | d2g2f2 | _e2c2f2 | Hf4 |]
% - - - - - - - - - -

%%sep 1 1 500
%%sep 1 1 500

